icons/op-mark-read-24.svg

<svg width="24" height="24" viewBox="0 0 24 24" fill="none" xmlns="http://www.w3.org/2000/svg">
<path fill-rule="evenodd" clip-rule="evenodd" d="M12.1406 7.46924C12.45 6.73834 12.9735 6.11357 13.6453 5.67399C14.3172 5.23471 15.1069 5 15.915 5C16.9984 5 18.0375 5.42144 18.8034 6.17171C19.5697 6.92168 20 7.93897 20 8.99995C20 9.79114 19.7603 10.5645 19.3116 11.2222C18.8628 11.8802 18.2247 12.3927 17.4781 12.6954C16.7316 12.9984 15.9103 13.0774 15.1178 12.923C14.3256 12.7689 13.5975 12.3877 13.0263 11.8285C12.455 11.2689 12.066 10.5562 11.9081 9.78037C11.7506 9.00456 11.8316 8.20014 12.1406 7.46924ZM14.3363 8.71417L13.8722 9.16852L15.3313 10.5971L17.9594 8.02449L17.4934 7.57137L15.3313 9.6887L14.3363 8.71417Z" fill="black"/>
<path d="M17.0125 18.322C17.4009 17.92 17.6172 17.3875 17.6168 16.8341V13.7154C17.2906 13.8283 16.9487 13.9099 16.5956 13.956V16.8335C16.5934 16.8904 16.5919 16.9224 16.5915 16.9285C16.5672 17.2207 16.4315 17.4927 16.2115 17.6914C15.9915 17.8898 15.7034 17.9999 15.4044 17.9999H6.21281C6.17649 17.9984 6.15009 17.9974 6.13367 17.9967C6.12352 17.9963 6.11719 17.9961 6.11468 17.9959C5.81656 17.9719 5.53875 17.8391 5.33625 17.6234C5.13375 17.4081 5.02125 17.126 5.02125 16.8335V12.2733L10.5722 15.1099C10.6181 15.1289 10.6434 15.1394 10.6484 15.1413C10.7134 15.1622 10.7819 15.1702 10.85 15.1649C10.9178 15.1594 10.984 15.1409 11.0447 15.1099C11.1903 15.0355 11.8453 14.7008 12.5006 14.3659C13.157 14.0305 13.8138 13.6949 13.9597 13.6204C13.5806 13.4666 13.2247 13.2691 12.8981 13.0347C12.8044 13.0827 12.4588 13.2593 11.8613 13.5647C11.5701 13.7135 11.2192 13.8928 10.8084 14.1027L5.29906 11.2887L10.8084 8.08205C10.847 8.1045 10.8713 8.11849 10.8814 8.12436L10.8859 8.12697C10.9478 7.78213 11.0459 7.44929 11.1765 7.13244C11.1738 7.13082 11.167 7.12688 11.1562 7.12059C11.1383 7.1102 11.1093 7.09338 11.0694 7.06999C11.0269 7.04969 11.0031 7.03831 10.9984 7.03585C10.9256 7.00755 10.8472 6.99555 10.769 7.00139C10.6909 7.00755 10.6153 7.03093 10.5478 7.06999L4.74906 10.4467C4.71867 10.4657 4.69537 10.4803 4.67912 10.4905C4.66428 10.4998 4.65532 10.5054 4.65219 10.5073C4.245 10.7866 4 11.2441 4 11.7353V16.8335C4.00132 16.8778 4.00218 16.9103 4.00273 16.9309C4.00309 16.9444 4.00331 16.9527 4.00344 16.9559C4.03531 17.5084 4.28219 18.0282 4.69281 18.4081C5.10375 18.7884 5.6475 19 6.21281 19H15.4044C15.4794 18.9985 15.5212 18.9975 15.5297 18.9972C16.0937 18.9659 16.6243 18.7244 17.0125 18.322Z" fill="black"/>
</svg>

<svg xmlns="http://www.w3.org/2000/svg" width="24" height="24" viewBox="0 0 24 24"><path d="M12.141 7.469a4.024 4.024 0 0 1 1.504-1.795 4.153 4.153 0 0 1 5.158.498A3.954 3.954 0 0 1 20 9c0 .791-.24 1.564-.688 2.222a4.06 4.06 0 0 1-1.834 1.473 4.166 4.166 0 0 1-2.36.228 4.108 4.108 0 0 1-2.092-1.095 3.978 3.978 0 0 1-1.118-2.048 3.93 3.93 0 0 1 .233-2.311Zm2.195 1.245-.464.455 1.459 1.428 2.628-2.573-.466-.453-2.162 2.118Z"/><path d="M17.012 18.322a2.14 2.14 0 0 0 .605-1.488v-3.119a5.15 5.15 0 0 1-1.021.241v2.878l-.005.094c-.024.293-.16.565-.379.763-.22.199-.509.309-.808.309H6.213a1.665 1.665 0 0 0-.079-.003l-.019-.001a1.201 1.201 0 0 1-.779-.373 1.154 1.154 0 0 1-.315-.789v-4.561l5.551 2.837.076.031a.532.532 0 0 0 .397-.031l1.456-.744 1.459-.746a5.12 5.12 0 0 1-1.062-.585l-1.037.53-1.053.538-5.509-2.814 5.509-3.207.073.042.005.003a4.85 4.85 0 0 1 .291-.995l-.021-.011a4.231 4.231 0 0 0-.087-.051l-.071-.034a.54.54 0 0 0-.229-.035.535.535 0 0 0-.221.069l-5.799 3.377-.07.044-.027.016c-.407.28-.652.737-.652 1.228v5.099l.003.097v.025c.032.552.279 1.072.69 1.452.411.38.954.592 1.52.592h9.191l.126-.003a2.23 2.23 0 0 0 1.482-.675Z"/></svg>
